X: 29195
T: New Copperplate, The
R: reel
M: 4/4
K: Gmajor
|:G2dG BGdG|G2dc BGG2|A2eA cAeA|A2ed cAFA|
G2dG BGdG|G2dc BGG2|ABcd efge|1 aged cAFA:|2 aged (3B^cd ef||
|:g3f g2ef|gedc BGG2|eaag agea|aged (3B^cd ef|
g3f g2ef|gedc BGG2|ABcd efge|1 aged (3B^cd ef:|2 aged cAFA||

